64x64/apps/SpiderOakONE.svg

<svg height="64" width="64" xmlns="http://www.w3.org/2000/svg"><path d="m32 0c17.7 0 32 14.3 32 32s-14.3 32-32 32-32-14.3-32-32 14.3-32 32-32z" opacity=".2" transform="matrix(.875 0 0 .875 4 5)"/><path d="m32 0c17.7 0 32 14.3 32 32s-14.3 32-32 32-32-14.3-32-32 14.3-32 32-32z" fill="#f4f4f7" transform="matrix(.875 0 0 .875 4 4)"/><path d="m20 17v13l12-12 12 12v-13zm24 13-12 12-12-12v11l12 12 12-12z" fill-rule="evenodd" opacity=".1"/><path d="m20 17v12l12-12zm12 0 12 12v-12zm12 12-12 12-12-12v11l12 12 12-12z" fill="#3a78b4" fill-rule="evenodd"/><path d="m32 4c-15.488 0-28 12.512-28 28 0 .168.01.333.014.5.266-15.255 12.666-27.5 27.986-27.5s27.72 12.245 27.986 27.5c.003-.167.014-.332.014-.5 0-15.488-12.513-28-28-28z" fill="#f4f4f7" opacity=".2"/></svg>

<svg xmlns="http://www.w3.org/2000/svg" width="64" height="64" xml:space="preserve"><path d="M32 0c17.7 0 32 14.3 32 32S49.7 64 32 64 0 49.7 0 32 14.3 0 32 0z" transform="matrix(.875 0 0 .875 4 5)" style="opacity:.2"/><path style="fill:#f4f4f7" d="M32 0c17.7 0 32 14.3 32 32S49.7 64 32 64 0 49.7 0 32 14.3 0 32 0z" transform="matrix(.875 0 0 .875 4 4)"/><path style="opacity:.1;fill-rule:evenodd" d="M20 17v13l12-12 12 12V17H20zm24 13L32 42 20 30v11l12 12 12-12V30z"/><path style="fill:#3a78b4;fill-rule:evenodd" d="M20 17v12l12-12H20zm12 0 12 12V17H32zm12 12L32 41 20 29v11l12 12 12-12V29z"/><g style="fill:#f4f4f7;opacity:.2"><path style="fill:#f4f4f7" d="M32 4C16.512 4 4 16.512 4 32c0 .168.01.333.014.5C4.28 17.245 16.68 5 32 5s27.72 12.245 27.986 27.5c.003-.167.014-.332.014-.5C60 16.512 47.487 4 32 4z"/></g></svg>
